fs/arrow_sort_down_lines_24_filled.svg

<svg viewBox="0 0 24 24" fill="none" xmlns="http://www.w3.org/2000/svg" height="1em" width="1em">
  <path d="M8.5 4.00391L8.38338 4.01063C7.88604 4.0684 7.5 4.49107 7.5 5.00391L7.49999 16.5837L5.20678 14.2933L5.11253 14.2101C4.72009 13.9053 4.15288 13.9333 3.79256 14.2939C3.40222 14.6846 3.40252 15.3178 3.79323 15.7081L7.79699 19.7081L7.89123 19.7913C8.28367 20.0961 8.85089 20.0681 9.2112 19.7075L13.2074 15.7075L13.2906 15.6132C13.5954 15.2208 13.5674 14.6536 13.2068 14.2933L13.1125 14.2101C12.7201 13.9053 12.1529 13.9333 11.7926 14.2939L9.49999 16.5877L9.5 5.00391L9.49327 4.88729C9.43551 4.38995 9.01284 4.00391 8.5 4.00391ZM13 5C12.4477 5 12 5.44772 12 6C12 6.55228 12.4477 7 13 7H21C21.5523 7 22 6.55228 22 6C22 5.44772 21.5523 5 21 5H13ZM13 8C12.4477 8 12 8.44772 12 9C12 9.55228 12.4477 10 13 10H18C18.5523 10 19 9.55228 19 9C19 8.44772 18.5523 8 18 8H13ZM12 12C12 11.4477 12.4477 11 13 11H15C15.5523 11 16 11.4477 16 12C16 12.5523 15.5523 13 15 13H13C12.4477 13 12 12.5523 12 12Z" fill="#212121"/>
</svg>

<svg viewBox="0 0 24 24" fill="none" xmlns="http://www.w3.org/2000/svg" height="1em" width="1em">
  <path d="m8.5 4.004-.117.007a1 1 0 0 0-.883.993v11.58l-2.293-2.29-.094-.084a1 1 0 0 0-1.32 1.498l4.004 4 .094.083a1 1 0 0 0 1.32-.084l3.996-4 .084-.094a1 1 0 0 0-.084-1.32l-.095-.083a1 1 0 0 0-1.32.084L9.5 16.588V5.004l-.007-.117a1 1 0 0 0-.993-.883ZM13 5a1 1 0 1 0 0 2h8a1 1 0 1 0 0-2h-8Zm0 3a1 1 0 1 0 0 2h5a1 1 0 1 0 0-2h-5Zm-1 4a1 1 0 0 1 1-1h2a1 1 0 1 1 0 2h-2a1 1 0 0 1-1-1Z" fill="#212121"/>
</svg>
